ix/wallet-1_bulk.svg

<svg viewBox="0 0 24 24" fill="none" xmlns="http://www.w3.org/2000/svg" height="1em" width="1em">
  <path opacity="0.8" d="M12.8992 2.52009L12.8692 2.59009L9.96922 9.32009H7.11922C6.43922 9.32009 5.79922 9.45009 5.19922 9.71009L6.94922 5.53009L6.98922 5.44009L7.04922 5.28009C7.07922 5.21009 7.09922 5.15009 7.12922 5.10009C8.43922 2.07009 9.91922 1.38009 12.8992 2.52009Z" fill="#292D32"/>
  <path d="M18.2907 9.52002C17.8407 9.39002 17.3707 9.32002 16.8807 9.32002H9.9707L12.8707 2.59002L12.9007 2.52002C13.0407 2.57002 13.1907 2.64002 13.3407 2.69002L15.5507 3.62002C16.7807 4.13002 17.6407 4.66002 18.1707 5.30002C18.2607 5.42002 18.3407 5.53002 18.4207 5.66002C18.5107 5.80002 18.5807 5.94002 18.6207 6.09002C18.6607 6.18002 18.6907 6.26002 18.7107 6.35002C18.9707 7.20002 18.8107 8.23002 18.2907 9.52002Z" fill="#292D32"/>
  <path opacity="0.4" d="M21.7602 14.1998V16.1498C21.7602 16.3498 21.7502 16.5498 21.7402 16.7398C21.5502 20.2398 19.6002 21.9998 15.9002 21.9998H8.10023C7.85023 21.9998 7.62023 21.9798 7.39023 21.9498C4.21023 21.7398 2.51023 20.0398 2.29023 16.8598C2.26023 16.6198 2.24023 16.3898 2.24023 16.1498V14.1998C2.24023 12.1898 3.46023 10.4598 5.20023 9.70982C5.80023 9.44982 6.44023 9.31982 7.12023 9.31982H16.8802C17.3702 9.31982 17.8402 9.38982 18.2902 9.51982C20.2902 10.1298 21.7602 11.9898 21.7602 14.1998Z" fill="#292D32"/>
  <path opacity="0.6" d="M6.95023 5.52979L5.20023 9.70978C3.46023 10.4598 2.24023 12.1898 2.24023 14.1998V11.2698C2.24023 8.42979 4.26023 6.05979 6.95023 5.52979Z" fill="#292D32"/>
  <path opacity="0.6" d="M21.7591 11.2698V14.1998C21.7591 11.9898 20.2891 10.1298 18.2891 9.51984C18.8091 8.22984 18.9691 7.19984 18.7091 6.34984C18.6891 6.25984 18.6591 6.17984 18.6191 6.08984C20.4891 7.05984 21.7591 9.02984 21.7591 11.2698Z" fill="#292D32"/>
</svg>

<svg viewBox="0 0 24 24" fill="none" xmlns="http://www.w3.org/2000/svg" height="1em" width="1em">
  <path opacity=".8" d="m12.9 2.52-.03.07-2.9 6.73H7.12c-.68 0-1.32.13-1.92.39l1.75-4.18.04-.09.06-.16c.03-.07.05-.13.08-.18 1.31-3.03 2.79-3.72 5.77-2.58Z" fill="#292D32"/>
  <path d="M18.29 9.52c-.45-.13-.92-.2-1.41-.2H9.97l2.9-6.73.03-.07c.14.05.29.12.44.17l2.21.93c1.23.51 2.09 1.04 2.62 1.68.09.12.17.23.25.36.09.14.16.28.2.43.04.09.07.17.09.26.26.85.1 1.88-.42 3.17Z" fill="#292D32"/>
  <path opacity=".4" d="M21.76 14.2v1.95c0 .2-.01.4-.02.59-.19 3.5-2.14 5.26-5.84 5.26H8.1c-.25 0-.48-.02-.71-.05-3.18-.21-4.88-1.91-5.1-5.09-.03-.24-.05-.47-.05-.71V14.2c0-2.01 1.22-3.74 2.96-4.49.6-.26 1.24-.39 1.92-.39h9.76c.49 0 .96.07 1.41.2a4.9 4.9 0 0 1 3.47 4.68Z" fill="#292D32"/>
  <path opacity=".6" d="M6.95 5.53 5.2 9.71a4.894 4.894 0 0 0-2.96 4.49v-2.93c0-2.84 2.02-5.21 4.71-5.74Zm14.81 5.74v2.93a4.9 4.9 0 0 0-3.47-4.68c.52-1.29.68-2.32.42-3.17-.02-.09-.05-.17-.09-.26a5.84 5.84 0 0 1 3.14 5.18Z" fill="#292D32"/>
</svg>
